raw-svg/external-link.svg

<svg viewBox="0 0 24 24" xmlns="http://www.w3.org/2000/svg"><path d="m18 20.75h-12a2.75 2.75 0 0 1 -2.75-2.75v-12a2.75 2.75 0 0 1 2.75-2.75h6a.75.75 0 0 1 0 1.5h-6a1.25 1.25 0 0 0 -1.25 1.25v12a1.25 1.25 0 0 0 1.25 1.25h12a1.25 1.25 0 0 0 1.25-1.25v-6a.75.75 0 0 1 1.5 0v6a2.75 2.75 0 0 1 -2.75 2.75z"/><path d="m20 8.75a.76.76 0 0 1 -.75-.75v-3.25h-3.25a.75.75 0 0 1 0-1.5h4a.76.76 0 0 1 .75.75v4a.76.76 0 0 1 -.75.75z"/><path d="m13.5 11.25a.74.74 0 0 1 -.5-.25.75.75 0 0 1 0-1l6.5-6.5a.75.75 0 1 1 1.06 1.06l-6.56 6.44a.74.74 0 0 1 -.5.25z"/></svg>

<svg xmlns="http://www.w3.org/2000/svg" viewBox="0 0 24 24"><g id="external-link"><path d="M18,20.75H6A2.75,2.75,0,0,1,3.25,18V6A2.75,2.75,0,0,1,6,3.25h6a.75.75,0,0,1,0,1.5H6A1.25,1.25,0,0,0,4.75,6V18A1.25,1.25,0,0,0,6,19.25H18A1.25,1.25,0,0,0,19.25,18V12a.75.75,0,0,1,1.5,0v6A2.75,2.75,0,0,1,18,20.75Z"/><path d="M20,8.75A.76.76,0,0,1,19.25,8V4.75H16a.75.75,0,0,1,0-1.5h4a.76.76,0,0,1,.75.75V8A.76.76,0,0,1,20,8.75Z"/><path d="M13.5,11.25A.74.74,0,0,1,13,11,.75.75,0,0,1,13,10l6.5-6.5a.75.75,0,1,1,1.06,1.06L14,11A.74.74,0,0,1,13.5,11.25Z"/></g></svg>
